X:2604
T:Lady Mary Cochrane's Reel
P:Lt. Ray's Quick Step
C:Braemar Coll.
R:Reel (8x32)
B:RSCDS 26-4
Z:Anselm Lingnau <anselm@strathspey.org>
M:2/4
L:1/16
K:C
G2|"C"[c3G3]d [e2G2]c2|"F"A4 A2a2|"C"[g2c2]e2 "D7"[d2^F2]c2|"G7"[d=F]cde d2G2|
   "C"[c3G3]d e2c2|"F"A4 A2a2|"C"[g2c2]e2 "G7"[d2F2]e2|"C"[c6E6]||
g2|"C"[c'3c3]g "F"a2g2|"C"[c'3c3]g "F"a2c'2|"C"g2e2 "D7"d2c2|"G7"dcde d2g2|
   "C"[c'3c3]g "F"a2g2|"C"[c'3c3]g "F"a2c'2|"G"[g2G2]e2 "G7"[d3F3]e|"C"c4z2|]
